X:1
T:Gia che non
T:Gia che non
T:Giovanni Felice Sances
T:Source : Cantate et arie a voce sola---Libro IV---Venetia---A.Vincenti---1636. Editor : André Vierendeels (02/04/15).
C:Giovanni Felice Sances
%%score 1 { ( 2 4 ) | 3 }
L:1/8
Q:1/4=160
M:3/2
K:F
V:1 treble nm="Canto" snm="C"
V:2 treble nm="BC" snm="BC"
V:4 treble 
V:3 bass 
V:1
 A4 D4 E4 | F8 G4 | A4 E8 | z4 z4 A2 B2 | c4 B4 A4 | A4 G8 | F8 A4 | G6 F2 G2 A2 | F4 D4 A2 =B2 | %9
w: Gia che non|son A-|do- ne,|Ga- ni-|me- de'o Nar-|ci- *|so, et|ho un cer- to|vi- so da dar|
w: So ben ho|fat- to'il|cal- lo,|nel- la|Mo- nel- la-|ci- *|a, co-|stei nel ar- te|mi- a po- treb-|
w: A mot- ti'et|al di-|let- to,|Cias- cun|le ri- s'ac-|co- *|pia, di|co- si bel- la|co- pia fis- san-|
 c4 =B4 c4 | d8 c4 | =B4 c2 B2 c2 d2 | =B12 | A8 c2 B2 | A4 G4 F4 | E12 | z4 z4 d2 c2 | B4 A4 G4 | %18
w: po- co mar-|tel- le'al-|le per- * * *|so-|ne, me- ra-|vi- glia non|e,|me- ra-|vi- glia non|
w: be dar mial-|men quin-|de- ci, _ _ e'un|fa-|lo, on- d'io|non gri- do|piu,|on- d'io|non gri- do|
w: do'il sguar- do'in|le- gia-|dro'as- pet- * * *||to, che ve-|der non si|puo,|che ve-|der non si|
 ^F12 | A4 B4 c4 | d4 _e4 d4 | c8 B4 | B4 A4 B4 | G8 d2 c2 | B4 A4 G4 | F8 A2 G2 | F4 E4 D4 | %27
w: e|se le mia|da- * ma'e|bel- la|co- me _|me me- ra-|vi- glia non|e, me- ra-|vi- glia non|
w: piu,|se pre- ten-|de _ star|me- co|a tu per|tu, on- d'io|non gri- do|piu, on- d'io|non gri- do|
w: puo,|sen- za tor-|cer _ la|boc- ca'e|dir a- *|bo, que quel|la- dro d'A-|mor, che ve-|der non si|
 ^C12 | E4 F4 G4 | A4 B4 A4 | G8 F4 | F4 E4 F4 | D12 ::[M:4/4] z2 DE F2 GA | B2 GA B2 cd | %35
w: e,|se la mia|da- * ma'e|bel- la|co- me _|me.|Che quel fra- scha d'A-|mor, che quem fa- scha d'A-|
w: piu,|se pre- ten-|de _ star|me- co|a tu per|tu.|Che quel fur- bo d'A-|mor, che quel fur- bo d'A-|
w: puo,|sen- za tor-|cer _ la|boc- ca'e|dir ai- *|bo.|Che quel la- dro d'A-|mor, che quel la- dro d'A-|
 _edcB B4 |[M:3/2] B8 d4 | A6 B2 c2 d2 | B4 G8 | F2 E2 F2 G2 A2 B2 | c4 B4 A4 | G12 | F8 A4 | %43
w: mor che le sa tu-|te ha|fat- to del- l'An-|cro- ia|ar- * * * * *|* der Mar-|gut-|te, ha|
w: mor che spes- so'in- nas-|pa, fa|fat- to del- la|lu- na|ar- * * * * *|* der la|ra-|spa, ha|
w: mor che fa del Za-|ni, ha|pre- so al- la|cuet- ta'un|Bar- * * * * *|* ba- gi-|a-|ni, ha|
 E6 F2 G2 A2 | F4 D8 | D2 C2 D2 E2 F2 G2 | A2 G2 A2 B2 c2 A2 | B6 A2 B2 c2 | d4 G4 F4 | F4 E8 | %50
w: fat- to del- l'An-|cro- ia|ar- * * * * *|||* der Mar-|gut- *|
w: fat- to de la|lu- na|ar- * * * * *|||* der la|ra- *|
w: pres- so al- la|cuet- ta'un|Bar- * * * * *|||* ba- gi-|a- *|
 D12 :| %51
w: te.|
w: spa.|
w: ni.|
V:2
 [FA]8 [EA]4 | [Ad]8 [Fd]4 | [E^c]12 | A8 A2 G2 | [CE]4 [DG]4 [DF]4 | [CF]4 [EG]8 | [CA]8 [CF]4 | %7
 [EG]6 [FA]2 [GB]2 [Ac]2 | [FA]8 [FA]2 [DG]2 | [EA]4 [DA]4 [EA]4 | [FA]12 | [^G=B]8 [FA]4 | %12
 [=B,^G]12 | [Ec]12 | [Fc]4 [GB]4 [FA]4 | [EG]12 | [DG]8 [DB]4 | [DG]4 [DA]4 [_EG]4 | [DA]12 | %19
 [^FA]4 [GB]4 [EA]4 | [FB]4 [B,G]4 [DG]4 | [_EG]12 | [DB]4 [FA]4 [GB]4 | [DB]12 | %24
 [FB]4 [FA]4 [_EG]4 | [DF]8 [FA]4 | [CA]8 [DB]4 | [EA]12 | E4 A4 B4 | [Ac]4 [FB]4 [CA]4 | [DB]12 | %31
 [DA]4 [EG]8 | [FA]12 ::[M:4/4] [DF]4 [DB]4 | [DB]8 | [_EG]4 [FA]4 |[M:3/2] [DF]8 [DG]4 | %37
 A6 G2 A2 B2 | B4 B8 | [FA]12 | [Ac]4 [GB]4 [DA]4 | [EG]12 | [CA]8 [DA]4 | [EA]12 | [FA]12 | %45
 [DF]12 | [Fc]12 | [DB]8 [FA]4 | [DB]12 | [CA]4 [EB]4 [^CA]4 | [D^F]12 :| %51
V:3
 D,8 ^C,4 | D,8 B,,4 | A,,12 | F,,8 G,,4 | A,,8 B,,4 | C,12 | F,,12 | C,12 |"^b" D,12 | A,,12 | %10
 D,12 |"^#" E,8 D,4 |"^#" E,12 | A,,12 | F,,12 | C,12 | G,,8 G,,2 A,,2 | B,,8 C,4 | D,12 | %19
 D,8 C,4 | B,,12 | C,12 | D,12 | G,,8 G,,2 A,,2 | B,,8 C,4 | D,8 D,2 E,2 | F,8 G,4 | A,12 | %28
 A,8 G,4 | F,12 | G,12 | A,8 A,,4 | D,12 ::[M:4/4] D,2 C,2 B,,2 A,,2 | G,,2 G,F, _E,2 D,2 | %35
 C,2 D,E, F,4 |[M:3/2] B,,12 | F,12 | G,12 | D,12 | A,,8 B,,4 | C,12 | F,,8 F,4 | ^C,12 | D,8 C,4 | %45
 B,,12 | A,,12 | G,,8 A,,4 | B,,8 G,,4 | A,,12 | D,12 :| %51
V:4
 x12 | x12 | x12 | F8 D4 | x12 | x12 | x12 | x12 | x12 | x12 | x12 | x12 | x12 | x12 | x12 | x12 | %16
 x12 | x12 | x12 | x12 | x12 | x12 | x12 | x12 | x12 | x12 | x12 | x12 | ^C8 D4 | x12 | x12 | x12 | %32
 x12 ::[M:4/4] x8 | x8 | x8 |[M:3/2] x12 | D12 | D12 | x12 | x12 | x12 | x12 | x12 | x12 | x12 | %46
 x12 | x12 | x12 | x12 | x12 :| %51

